X:701
T:Mrs. General Maxwell
R:Reel
B:The Athole Collection
M:C|
L:1/8
K:C
G|c2 ec dGBG|c2 ec dAAB|c2 ec dGBG|cAGc ECC:|
e|gagf ecce|gage fdde|gagf ecaf|ecGB c2 ce|gagf ecce|
gage fddf|eceg fagf|ecdB c2c||

